X:1716
T:The Jolly Little Boy
M:2/4
L:1/16
N:"collected by Cronin"
B:O'Neill's 1716
R:Hornpipe
Z:"Transcribed by Bob Safranek, rjs@gsp.org"
K:D
   ((3ABc) | dcdA GFED | GEFD EDB,A, | DFEG FAGB | Adce dfeg |
             fdAF GFED | DEFD EDB,A, | DFEG FAGB | Adce d2  :|
|: ((3ABc) | dcdf edBA | dfaf  gfge  | dcdf ecAc | BAGA A2((3ABc) |
             dcdg edBA | dfaf  gfge  | afge fdec | Agfe d2  :|


